public/avatar/body/85.svg

<svg xmlns:xlink="http://www.w3.org/1999/xlink" height="82" width="84.85" xmlns="http://www.w3.org/2000/svg"><g transform="translate(37.4 42.25)"><use height="38" transform="translate(-11.95 -17.45)" width="32.05" xlink:href="#a"/><use height="19.45" transform="translate(-11.65 1.05)" width="32.15" xlink:href="#b"/><use height="38.95" transform="translate(-12.45 -17.95)" width="33.05" xlink:href="#c"/><use height="37.8" transform="translate(2.15 -17.45)" width="18" xlink:href="#d"/><use height="7.55" transform="translate(-4.3 -14.65)" width="6.6" xlink:href="#e"/></g><defs><use height="38" width="32.05" xlink:href="#f" id="a"/><use height="38.95" width="33.05" xlink:href="#g" id="c"/><use height="37.8" width="18" xlink:href="#h" id="d"/><use height="7.55" width="6.6" xlink:href="#i" id="e"/><path d="M27.35 7.4q2.15 4.15 3.55 8.75 1.45 4.7 1.15 9.5-.35 4.95-4.2 8.1-3.8 3.2-8.75 4.05l-2.6.2q-3.6 0-7.05-1.15-4.65-1.6-7.1-5.5Q-.2 27.4.05 23q.2-4.4 2-9.3Q3.85 8.75 7 5.05 10.1 1.3 14.7.1l1.8-.1q1.9.05 3.7.8 4.75 2.05 7.15 6.6" fill="#00ccf0" fill-rule="evenodd" transform="translate(-.05)" id="f"/><path d="M27.35 7.4Q24.95 2.85 20.2.8 17.55-.3 14.7.1 10.1 1.3 7 5.05q-3.15 3.7-4.95 8.65-1.8 4.9-2 9.3-.25 4.4 2.3 8.35 2.45 3.9 7.1 5.5 4.65 1.55 9.65.95 4.95-.85 8.75-4.05 3.85-3.15 4.2-8.1.3-4.8-1.15-9.5-1.4-4.6-3.55-8.75Z" fill="none" stroke="#333" stroke-linecap="round" stroke-linejoin="round" transform="translate(.45 .5)" id="g"/><path d="m11.7 5.95 1.45 2 2.35 4.5 1.85 5.95.45 2.3.2 2.8q-.45 3.1-1.5 6.15l-1.5 2.5-.75.9-1.65 1.5-.4.3-2.55 1.45-4.75 1.25-2.9.25 2.7-1.2q1.5-.7 2.6-1.95 3.45-4.05 4.85-8.4l-.05-1.8Q11.8 15.4 6.9 7.5 5 4.4 2.6 1.7L0 .2 1.1 0l2.1.1 1.15.35 2.1.9 1.95 1.2.9.75 2.4 2.65" fill="#765d54" fill-opacity=".302" fill-rule="evenodd" id="h"/><g id="b"><path d="m20 1.5.5 3.9-.55 3.4Q14 11.5 4.75 11.5t-16.25-2l-.15-3.35.35-5.1q1.5 1.8 4.25 3.6 5.4 3.6 11.4 3.6 6.05 0 11.45-3.35 2.7-1.7 4.2-3.4" fill="#59e8ff" fill-rule="evenodd" transform="translate(11.65 -1.05)"/><path d="M4.25 11.25q12.5 0 16.1-3.05l.15 2.05Q15.75 13 4.35 13-7 13-10.7 11.9l-.7-2.75q3.15 2.1 15.65 2.1" fill="#dbfaff" fill-rule="evenodd" transform="translate(11.65 -1.05)"/><path d="M4.8 20.5q-6.85 0-11.85-4.6l-2.75-3.2-.85-1.45Q-7.5 13 4.35 13q11.9 0 16.15-2.75-1.2 2.55-3.75 5.15-5.15 5.1-11.95 5.1" fill="#00c23d" fill-rule="evenodd" transform="translate(11.65 -1.05)"/><path d="M5.3 20.35q-8.4 0-12.9-4.25-1.45-1.35-2.3-2.9l-.55-1.35 3.5 3.2q4.85 3.15 11.9 3.15 7.05 0 11.95-4.15 2.5-2.1 3.55-4.2-.95 2.65-3.3 5.25-4.7 5.25-11.85 5.25" fill="#00a132" fill-rule="evenodd" transform="translate(11.65 -1.05)"/><path d="M-10.9 11.5q7.1 1.6 15.7 1.6 8.55 0 15.15-2.55" fill="none" stroke="#fff" stroke-linecap="round" stroke-linejoin="round" transform="translate(11.65 -1.05)"/><path d="M16.2 2.8q.9-1.05 2.15 1.05 2 3.45-.95 3.05 2.65 1.7-.25 3.65-2.85 1.9-2.85-1.5-1.25 3.8-3.65.65-1.45-1.95.25-2.95.9-.5 2.05-.6-4.6-1.85-.65-3.95 3.9-2.05 3.2 2.1l.7-1.5" fill="#ffa133" fill-rule="evenodd" transform="translate(11.65 -1.05)"/><path d="M2 12.05q-.55-1.05-.65-2.1-.2-2.1 2.2-2.1 3.8 0 1.5 4.05l1.7-1.3q1.9-.85 2.85 1.4 1.6 3.55-3.3 3.1 4.3 1.55.95 3.7-3.4 2.2-3.7-2.55-.9 4.8-4.25 2.35-2.1-1.55-.4-2.65L1 15.1q-4.65.6-3.05-2.85 1-2.15 2.65-1.4.8.4 1.4 1.2" fill="#ff4130" fill-rule="evenodd" transform="translate(11.65 -1.05)"/><path d="M5.25 14q0 1.65-1.65 1.65Q2 15.65 2 14q0-1.6 1.6-1.6 1.65 0 1.65 1.6" fill="#ffc7e5" fill-rule="evenodd" transform="translate(11.65 -1.05)"/><path d="M14.35 5.35q.9-.7 1.7.65.8 1.3-.15 1.95-.9.65-1.6-.7-.75-1.3.05-1.9" fill="#ffea85" fill-rule="evenodd" transform="translate(11.65 -1.05)"/><path d="M-6.65 4.05Q-7.4-.25-3.4 1.9q4.05 2.15-.65 4.05 4.8.4 2.35 3.65-2.45 3.25-3.75-.7.05 3.5-2.95 1.55-2.95-2-.25-3.75-3 .4-.95-3.1 2.05-3.55 2.95.45" fill="#ff59e4" fill-rule="evenodd" transform="translate(11.65 -1.05)"/><path d="M-5.5 5.1q.8.6.05 1.95-.7 1.4-1.65.75-.95-.7-.15-2.05.85-1.35 1.75-.65" fill="#fffdfc" fill-rule="evenodd" transform="translate(11.65 -1.05)"/></g><g id="i" fill="#fff1ef" fill-rule="evenodd"><path d="M1.1 3q-.05.45.3.8 1.1 1.25 2.6.25 2.55-1.7.8-3.8Q4.6 0 4.3 0 1.2.25 1.1 3"/><path d="M.95 7.1q1 .7 2.35.3 1.35-.45 2.35-1.75.95-1.3.95-2.7Q6.65 1.5 5.7.8 4.75.05 3.4.5 2.05.9 1 2.25q-.95 1.3-1 2.7 0 1.4.95 2.15" fill-opacity=".502"/></g></defs></svg>

<?xml version="1.0" encoding="UTF-8" standalone="no"?>
<svg xmlns:xlink="http://www.w3.org/1999/xlink" height="82.0px" width="84.85px" xmlns="http://www.w3.org/2000/svg">
  <g transform="matrix(1.0, 0.0, 0.0, 1.0, 37.4, 42.25)">
    <use height="38.0" transform="matrix(1.0, 0.0, 0.0, 1.0, -11.95, -17.45)" width="32.05" xlink:href="#sprite0"/>
    <use height="19.45" transform="matrix(1.0, 0.0, 0.0, 1.0, -11.65, 1.05)" width="32.15" xlink:href="#shape1"/>
    <use height="38.95" transform="matrix(1.0, 0.0, 0.0, 1.0, -12.45, -17.95)" width="33.05" xlink:href="#sprite1"/>
    <use height="37.8" transform="matrix(1.0, 0.0, 0.0, 1.0, 2.15, -17.45)" width="18.0" xlink:href="#sprite2"/>
    <use height="7.55" transform="matrix(1.0, 0.0, 0.0, 1.0, -4.3, -14.65)" width="6.6" xlink:href="#sprite3"/>
  </g>
  <defs>
    <g id="sprite0" transform="matrix(1.0, 0.0, 0.0, 1.0, -0.05, 0.0)">
      <use height="38.0" transform="matrix(1.0, 0.0, 0.0, 1.0, 0.05, 0.0)" width="32.05" xlink:href="#shape0"/>
    </g>
    <g id="shape0" transform="matrix(1.0, 0.0, 0.0, 1.0, -0.05, 0.0)">
      <path d="M27.35 7.4 Q29.5 11.55 30.9 16.15 32.35 20.85 32.05 25.65 31.7 30.6 27.85 33.75 24.05 36.95 19.1 37.8 L16.5 38.0 Q12.9 38.0 9.45 36.85 4.8 35.25 2.35 31.35 -0.2 27.4 0.05 23.0 0.25 18.6 2.05 13.7 3.85 8.75 7.0 5.05 10.1 1.3 14.7 0.1 L16.5 0.0 Q18.4 0.05 20.2 0.8 24.95 2.85 27.35 7.4" fill="#00ccf0" fill-rule="evenodd" stroke="none"/>
    </g>
    <g id="shape1" transform="matrix(1.0, 0.0, 0.0, 1.0, 11.65, -1.05)">
      <path d="M20.0 1.5 L20.5 5.4 19.95 8.8 Q14.0 11.5 4.75 11.5 -4.5 11.5 -11.5 9.5 L-11.65 6.15 -11.3 1.05 Q-9.8 2.85 -7.05 4.65 -1.65 8.25 4.35 8.25 10.4 8.25 15.8 4.9 18.5 3.2 20.0 1.5" fill="#59e8ff" fill-rule="evenodd" stroke="none"/>
      <path d="M4.25 11.25 Q16.75 11.25 20.35 8.2 L20.5 10.25 Q15.75 13.0 4.35 13.0 -7.0 13.0 -10.7 11.9 L-11.4 9.15 Q-8.25 11.25 4.25 11.25" fill="#dbfaff" fill-rule="evenodd" stroke="none"/>
      <path d="M4.8 20.5 Q-2.05 20.5 -7.05 15.9 L-9.8 12.7 -10.65 11.25 Q-7.5 13.0 4.35 13.0 16.25 13.0 20.5 10.25 19.3 12.8 16.75 15.4 11.6 20.5 4.8 20.5" fill="#00c23d" fill-rule="evenodd" stroke="none"/>
      <path d="M5.3 20.35 Q-3.1 20.35 -7.6 16.1 -9.05 14.75 -9.9 13.2 L-10.45 11.85 -6.95 15.05 Q-2.1 18.2 4.95 18.2 12.0 18.2 16.9 14.05 19.4 11.95 20.45 9.85 19.5 12.5 17.15 15.1 12.45 20.35 5.3 20.35" fill="#00a132" fill-rule="evenodd" stroke="none"/>
      <path d="M-10.9 11.5 Q-3.8 13.1 4.8 13.1 13.35 13.1 19.95 10.55" fill="none" stroke="#ffffff" stroke-linecap="round" stroke-linejoin="round" stroke-width="1.0"/>
      <path d="M16.2 2.8 Q17.1 1.75 18.35 3.85 20.35 7.3 17.4 6.9 20.05 8.6 17.15 10.55 14.3 12.45 14.3 9.05 13.05 12.85 10.65 9.7 9.2 7.75 10.9 6.75 11.8 6.25 12.95 6.15 8.35 4.3 12.3 2.2 16.2 0.15 15.5 4.3 L16.2 2.8" fill="#ffa133" fill-rule="evenodd" stroke="none"/>
      <path d="M2.0 12.05 Q1.45 11.0 1.35 9.95 1.15 7.85 3.55 7.85 7.35 7.85 5.05 11.9 L6.75 10.6 Q8.65 9.75 9.6 12.0 11.2 15.55 6.3 15.1 10.6 16.65 7.25 18.8 3.85 21.0 3.55 16.25 2.65 21.05 -0.7 18.6 -2.8 17.05 -1.1 15.95 L1.0 15.1 Q-3.65 15.7 -2.05 12.25 -1.05 10.1 0.6 10.85 1.4 11.25 2.0 12.05" fill="#ff4130" fill-rule="evenodd" stroke="none"/>
      <path d="M5.25 14.0 Q5.25 15.65 3.6 15.65 2.0 15.65 2.0 14.0 2.0 12.4 3.6 12.4 5.25 12.4 5.25 14.0" fill="#ffc7e5" fill-rule="evenodd" stroke="none"/>
      <path d="M14.35 5.35 Q15.25 4.65 16.05 6.0 16.85 7.3 15.9 7.95 15.0 8.6 14.3 7.25 13.55 5.95 14.35 5.35" fill="#ffea85" fill-rule="evenodd" stroke="none"/>
      <path d="M-6.65 4.05 Q-7.4 -0.25 -3.4 1.9 0.65 4.05 -4.05 5.95 0.75 6.35 -1.7 9.6 -4.15 12.85 -5.45 8.9 -5.4 12.4 -8.4 10.45 -11.35 8.45 -8.65 6.7 -11.65 7.1 -9.6 3.6 -7.55 0.05 -6.65 4.05" fill="#ff59e4" fill-rule="evenodd" stroke="none"/>
      <path d="M-5.5 5.1 Q-4.7 5.7 -5.45 7.05 -6.15 8.45 -7.1 7.8 -8.05 7.1 -7.25 5.75 -6.4 4.4 -5.5 5.1" fill="#fffdfc" fill-rule="evenodd" stroke="none"/>
    </g>
    <g id="sprite1" transform="matrix(1.0, 0.0, 0.0, 1.0, 0.45, 0.5)">
      <use height="38.95" transform="matrix(1.0, 0.0, 0.0, 1.0, -0.45, -0.5)" width="33.05" xlink:href="#shape2"/>
    </g>
    <g id="shape2" transform="matrix(1.0, 0.0, 0.0, 1.0, 0.45, 0.5)">
      <path d="M27.35 7.4 Q24.95 2.85 20.2 0.8 17.55 -0.3 14.7 0.1 10.1 1.3 7.0 5.05 3.85 8.75 2.05 13.7 0.25 18.6 0.05 23.0 -0.2 27.4 2.35 31.35 4.8 35.25 9.45 36.85 14.1 38.4 19.1 37.8 24.05 36.95 27.85 33.75 31.7 30.6 32.05 25.65 32.35 20.85 30.9 16.15 29.5 11.55 27.35 7.4 Z" fill="none" stroke="#333333" stroke-linecap="round" stroke-linejoin="round" stroke-width="1.0"/>
    </g>
    <g id="sprite2" transform="matrix(1.0, 0.0, 0.0, 1.0, 0.0, 0.0)">
      <use height="37.8" transform="matrix(1.0, 0.0, 0.0, 1.0, 0.0, 0.0)" width="18.0" xlink:href="#shape3"/>
    </g>
    <g id="shape3" transform="matrix(1.0, 0.0, 0.0, 1.0, 0.0, 0.0)">
      <path d="M11.7 5.95 L13.15 7.95 15.5 12.45 17.35 18.4 17.8 20.7 18.0 23.5 Q17.55 26.6 16.5 29.65 L15.0 32.15 14.25 33.05 12.6 34.55 12.2 34.85 9.65 36.3 4.9 37.55 2.0 37.8 4.7 36.6 Q6.2 35.9 7.3 34.65 10.75 30.6 12.15 26.25 L12.1 24.45 Q11.8 15.4 6.9 7.5 5.0 4.4 2.6 1.7 L0.0 0.2 1.1 0.0 3.2 0.1 4.35 0.45 6.45 1.35 8.4 2.55 9.3 3.3 11.7 5.95" fill="#765d54" fill-opacity="0.3019608" fill-rule="evenodd" stroke="none"/>
    </g>
    <g id="sprite3" transform="matrix(1.0, 0.0, 0.0, 1.0, 0.0, 0.0)">
      <use height="7.55" transform="matrix(1.0, 0.0, 0.0, 1.0, 0.0, 0.0)" width="6.6" xlink:href="#shape4"/>
    </g>
    <g id="shape4" transform="matrix(1.0, 0.0, 0.0, 1.0, 0.0, 0.0)">
      <path d="M1.1 3.0 Q1.05 3.45 1.4 3.8 2.5 5.05 4.0 4.05 6.55 2.35 4.8 0.25 4.6 0.0 4.3 0.0 1.2 0.25 1.1 3.0" fill="#fff1ef" fill-rule="evenodd" stroke="none"/>
      <path d="M0.95 7.1 Q1.95 7.8 3.3 7.4 4.65 6.95 5.65 5.65 6.6 4.35 6.6 2.95 6.65 1.5 5.7 0.8 4.75 0.05 3.4 0.5 2.05 0.9 1.0 2.25 0.05 3.55 0.0 4.95 0.0 6.35 0.95 7.1" fill="#fff1ef" fill-opacity="0.5019608" fill-rule="evenodd" stroke="none"/>
    </g>
  </defs>
</svg>
